X:218
T: Fly Not Yet[t]
N: O'Farrell's Pocket Companion v.3 (Sky ed. p.108)
N: "Irish"
M: 6/8
L: 1/8
R: jig
Q: 320
K: G
D| G2G G2A| B2c d2B| d2e f2g| a2g fed| b2b a2g| g2f e2d| e2f g2e| d2c B2A|
G2g faf| g3 z BA|  G2G G2A| B2c d2B| d2e f2g| a2g fed|
b2g a2f| g2f e2d| e2f g2e| d2c B2A| G3 g3| G3 g3| b2a a2g| g2f e2d|
e2f g2e| d2c B2A| G2g gaf| g3 z3| G2g g2z| G2g g2z| b2a g2f| g2f e2d| e2f g2e|
d2c B2A| G2g gaf| g2z z2 ||
